plerdy/markup/images/Logo.svg

<svg width="140" height="34" viewBox="0 0 140 34" fill="none" xmlns="http://www.w3.org/2000/svg">
<g clip-path="url(#clip0_1_724)">
<path d="M0 16.417V24.6581C0 26.1514 1.21868 27.3621 2.7226 27.3621H10.0699V12.7524L0 16.417Z" fill="url(#paint0_linear_1_724)"/>
<path d="M10.49 12.7524L14.0867 18.1156V27.3618L10.49 22.456V12.7524Z" fill="url(#paint1_linear_1_724)"/>
<path d="M14.507 10.3784V27.3617H24.582L24.5769 6.71387L14.507 10.3784Z" fill="url(#paint2_linear_1_724)"/>
<path d="M24.9966 6.71387L29.0916 13.7755V27.3621L24.9988 20.0978L24.9966 6.71387Z" fill="url(#paint3_linear_1_724)"/>
<path d="M29.5115 4.15142V27.3619H38.1889C39.6924 27.3619 40.9111 26.1515 40.9111 24.6578V0L29.5115 4.15142Z" fill="url(#paint4_linear_1_724)"/>
<path d="M50.0157 7.41992H59.721C61.9264 7.41992 63.6912 8.03326 64.9851 9.28911C66.3084 10.5158 66.9553 12.1517 66.9553 14.167C66.9553 16.241 66.2789 17.8765 64.9258 19.1324C63.603 20.3882 61.7794 21.0016 59.5147 21.0016H54.8676V27.3234H50.0157V7.41992ZM54.8681 16.9711H59.1622C61.0442 16.9711 62.1911 15.8905 62.1911 14.2254C62.1911 12.619 61.0148 11.5384 59.1622 11.5384H54.8681V16.9711Z" fill="url(#paint5_linear_1_724)"/>
<path d="M73.2008 4.49902V21.9956C73.2008 22.7841 73.7595 23.2806 74.6123 23.2806C74.9651 23.2806 75.5238 23.1346 76.3183 22.8717L77.0534 26.5224C75.7889 27.1362 74.6421 27.4278 73.5831 27.4278C70.5248 27.4278 68.4954 25.3834 68.4954 22.3455V4.49902H73.2008Z" fill="url(#paint6_linear_1_724)"/>
<path d="M92.0633 20.8562H81.2409C81.6232 22.609 82.8588 23.6896 84.4173 23.6896C85.888 23.6896 86.9466 23.1342 87.5642 21.9952L91.7402 22.8421C90.4753 25.88 87.8582 27.4275 84.4168 27.4275C82.2404 27.4275 80.3877 26.6974 78.8881 25.2662C77.3883 23.8059 76.6234 21.9364 76.6234 19.6583C76.6234 17.4091 77.388 15.5398 78.8881 14.0791C80.3877 12.6188 82.2404 11.8887 84.4462 11.8887C86.593 11.8887 88.3871 12.5896 89.8284 14.0211C91.2698 15.4522 92.0338 17.3219 92.0633 19.6583V20.8562ZM81.3292 17.9935H87.4171C86.9756 16.4748 85.8582 15.6862 84.4467 15.6862C83.0641 15.6862 81.7703 16.5625 81.3292 17.9935Z" fill="url(#paint7_linear_1_724)"/>
<path d="M104.515 12.2397L104.309 16.913H103.456C100.074 16.913 98.3685 18.753 98.3685 22.4043V27.3534H93.6631V11.8809H98.3685V15.1315C99.5742 13.1158 101.28 12.1229 103.456 12.1229C103.838 12.1229 104.191 12.152 104.515 12.2397Z" fill="url(#paint8_linear_1_724)"/>
<path d="M121.416 4.49902V26.9902H116.71V25.7339C115.533 26.8725 114.005 27.4278 112.122 27.4278C110.122 27.4278 108.416 26.6976 107.005 25.2666C105.622 23.8063 104.916 21.9367 104.916 19.6587C104.916 17.4093 105.622 15.5402 107.005 14.0794C108.416 12.6191 110.122 11.889 112.122 11.889C114.004 11.889 115.533 12.4439 116.71 13.5834V4.49902H121.416ZM115.621 22.4044C116.357 21.6743 116.71 20.7689 116.71 19.6587C116.71 18.578 116.357 17.6722 115.621 16.9421C114.916 16.2119 114.063 15.8615 113.092 15.8615C111.004 15.8615 109.533 17.4386 109.533 19.6587C109.533 21.9079 111.004 23.4562 113.092 23.4562C114.063 23.4562 114.916 23.1053 115.621 22.4044Z" fill="url(#paint9_linear_1_724)"/>
<path d="M140 11.8911L130.425 34.0001H125.338L128.602 26.4937L122.303 11.8911H127.362L131.042 20.8858L134.941 11.8911H140Z" fill="url(#paint10_linear_1_724)"/>
</g>
<defs>
<linearGradient id="paint0_linear_1_724" x1="-6.21574e-08" y1="-0.000107761" x2="43.9505" y2="6.36026" gradientUnits="userSpaceOnUse">
<stop stop-color="#2D8DFE"/>
<stop offset="1" stop-color="#0E77F1"/>
</linearGradient>
<linearGradient id="paint1_linear_1_724" x1="1.37912e-05" y1="-0.000108734" x2="43.9505" y2="6.36026" gradientUnits="userSpaceOnUse">
<stop stop-color="#2D8DFE"/>
<stop offset="1" stop-color="#0E77F1"/>
</linearGradient>
<linearGradient id="paint2_linear_1_724" x1="-9.10046e-06" y1="-0.000172869" x2="43.9504" y2="6.3602" gradientUnits="userSpaceOnUse">
<stop stop-color="#2D8DFE"/>
<stop offset="1" stop-color="#0E77F1"/>
</linearGradient>
<linearGradient id="paint3_linear_1_724" x1="-7.66835e-06" y1="0.000239651" x2="43.9505" y2="6.36061" gradientUnits="userSpaceOnUse">
<stop stop-color="#2D8DFE"/>
<stop offset="1" stop-color="#0E77F1"/>
</linearGradient>
<linearGradient id="paint4_linear_1_724" x1="7.81514e-06" y1="7.92918e-07" x2="43.9505" y2="6.36037" gradientUnits="userSpaceOnUse">
<stop stop-color="#2D8DFE"/>
<stop offset="1" stop-color="#0E77F1"/>
</linearGradient>
<linearGradient id="paint5_linear_1_724" x1="140" y1="19.2494" x2="50.0157" y2="19.2495" gradientUnits="userSpaceOnUse">
<stop stop-color="#141414"/>
<stop offset="0.484375" stop-color="#2B3C50"/>
<stop offset="1" stop-color="#141414"/>
</linearGradient>
<linearGradient id="paint6_linear_1_724" x1="140" y1="19.2495" x2="50.0157" y2="19.2496" gradientUnits="userSpaceOnUse">
<stop stop-color="#141414"/>
<stop offset="0.484375" stop-color="#2B3C50"/>
<stop offset="1" stop-color="#141414"/>
</linearGradient>
<linearGradient id="paint7_linear_1_724" x1="140" y1="19.2496" x2="50.0157" y2="19.2497" gradientUnits="userSpaceOnUse">
<stop stop-color="#141414"/>
<stop offset="0.484375" stop-color="#2B3C50"/>
<stop offset="1" stop-color="#141414"/>
</linearGradient>
<linearGradient id="paint8_linear_1_724" x1="140" y1="19.2497" x2="50.0157" y2="19.2498" gradientUnits="userSpaceOnUse">
<stop stop-color="#141414"/>
<stop offset="0.484375" stop-color="#2B3C50"/>
<stop offset="1" stop-color="#141414"/>
</linearGradient>
<linearGradient id="paint9_linear_1_724" x1="140" y1="19.2495" x2="50.0158" y2="19.2496" gradientUnits="userSpaceOnUse">
<stop stop-color="#141414"/>
<stop offset="0.484375" stop-color="#2B3C50"/>
<stop offset="1" stop-color="#141414"/>
</linearGradient>
<linearGradient id="paint10_linear_1_724" x1="140" y1="19.2495" x2="50.0157" y2="19.2496" gradientUnits="userSpaceOnUse">
<stop stop-color="#141414"/>
<stop offset="0.484375" stop-color="#2B3C50"/>
<stop offset="1" stop-color="#141414"/>
</linearGradient>
<clipPath id="clip0_1_724">
<rect width="140" height="34" fill="white"/>
</clipPath>
</defs>
</svg>

<svg width="140" height="34" viewBox="0 0 140 34" fill="none" xmlns="http://www.w3.org/2000/svg"><g clip-path="url(#clip0_1_724)"><path d="M0 16.417v8.241a2.713 2.713 0 002.723 2.704h7.347v-14.61L0 16.417z" fill="url(#paint0_linear_1_724)"/><path d="M10.49 12.752l3.597 5.364v9.246l-3.597-4.906v-9.704z" fill="url(#paint1_linear_1_724)"/><path d="M14.507 10.378v16.984h10.075l-.005-20.648-10.07 3.664z" fill="url(#paint2_linear_1_724)"/><path d="M24.997 6.714l4.095 7.061v13.587l-4.093-7.264-.002-13.384z" fill="url(#paint3_linear_1_724)"/><path d="M29.512 4.151v23.21h8.677a2.713 2.713 0 002.722-2.703V0l-11.4 4.151z" fill="url(#paint4_linear_1_724)"/><path d="M50.016 7.42h9.705c2.205 0 3.97.613 5.264 1.87 1.323 1.226 1.97 2.862 1.97 4.877 0 2.074-.676 3.71-2.03 4.965-1.322 1.256-3.146 1.87-5.41 1.87h-4.647v6.321h-4.852V7.42zm4.852 9.551h4.294c1.882 0 3.03-1.08 3.03-2.746 0-1.606-1.177-2.687-3.03-2.687h-4.294v5.433z" fill="url(#paint5_linear_1_724)"/><path d="M73.2 4.499v17.497c0 .788.56 1.285 1.412 1.285.353 0 .912-.146 1.706-.41l.735 3.651c-1.264.614-2.41.906-3.47.906-3.058 0-5.088-2.045-5.088-5.082V4.498h4.706z" fill="url(#paint6_linear_1_724)"/><path d="M92.063 20.856H81.241c.382 1.753 1.618 2.834 3.176 2.834 1.471 0 2.53-.556 3.147-1.695l4.176.847c-1.265 3.038-3.882 4.585-7.323 4.585-2.177 0-4.03-.73-5.529-2.16-1.5-1.461-2.265-3.33-2.265-5.609 0-2.249.765-4.118 2.265-5.579 1.5-1.46 3.352-2.19 5.558-2.19 2.147 0 3.941.7 5.382 2.132 1.442 1.431 2.206 3.3 2.235 5.637v1.198zM81.33 17.993h6.088c-.441-1.518-1.559-2.307-2.97-2.307a3.252 3.252 0 00-3.118 2.308z" fill="url(#paint7_linear_1_724)"/><path d="M104.515 12.24l-.206 4.673h-.853c-3.382 0-5.088 1.84-5.088 5.491v4.95h-4.705V11.88h4.706v3.25c1.205-2.015 2.911-3.008 5.087-3.008.382 0 .735.029 1.059.117z" fill="url(#paint8_linear_1_724)"/><path d="M121.416 4.499V26.99h-4.706v-1.256c-1.177 1.138-2.705 1.694-4.588 1.694-2 0-3.706-.73-5.117-2.161-1.383-1.46-2.089-3.33-2.089-5.608 0-2.25.706-4.119 2.089-5.58 1.411-1.46 3.117-2.19 5.117-2.19 1.882 0 3.411.555 4.588 1.694V4.5h4.706zm-5.795 17.905c.736-.73 1.089-1.635 1.089-2.745 0-1.081-.353-1.987-1.089-2.717-.705-.73-1.558-1.08-2.529-1.08-2.088 0-3.559 1.577-3.559 3.797 0 2.249 1.471 3.797 3.559 3.797.971 0 1.824-.35 2.529-1.052z" fill="url(#paint9_linear_1_724)"/><path d="M140 11.891l-9.575 22.11h-5.087l3.264-7.507-6.299-14.603h5.059l3.68 8.995 3.899-8.995H140z" fill="url(#paint10_linear_1_724)"/></g><defs><linearGradient id="paint0_linear_1_724" x1="0" y1="0" x2="43.95" y2="6.36" gradientUnits="userSpaceOnUse"><stop stop-color="#2D8DFE"/><stop offset="1" stop-color="#0E77F1"/></linearGradient><linearGradient id="paint1_linear_1_724" x1="0" y1="0" x2="43.95" y2="6.36" gradientUnits="userSpaceOnUse"><stop stop-color="#2D8DFE"/><stop offset="1" stop-color="#0E77F1"/></linearGradient><linearGradient id="paint2_linear_1_724" x1="0" y1="0" x2="43.95" y2="6.36" gradientUnits="userSpaceOnUse"><stop stop-color="#2D8DFE"/><stop offset="1" stop-color="#0E77F1"/></linearGradient><linearGradient id="paint3_linear_1_724" x1="0" y1="0" x2="43.95" y2="6.361" gradientUnits="userSpaceOnUse"><stop stop-color="#2D8DFE"/><stop offset="1" stop-color="#0E77F1"/></linearGradient><linearGradient id="paint4_linear_1_724" x1="0" y1="0" x2="43.95" y2="6.36" gradientUnits="userSpaceOnUse"><stop stop-color="#2D8DFE"/><stop offset="1" stop-color="#0E77F1"/></linearGradient><linearGradient id="paint5_linear_1_724" x1="140" y1="19.249" x2="50.016" y2="19.25" gradientUnits="userSpaceOnUse"><stop stop-color="#141414"/><stop offset=".484" stop-color="#2B3C50"/><stop offset="1" stop-color="#141414"/></linearGradient><linearGradient id="paint6_linear_1_724" x1="140" y1="19.25" x2="50.016" y2="19.25" gradientUnits="userSpaceOnUse"><stop stop-color="#141414"/><stop offset=".484" stop-color="#2B3C50"/><stop offset="1" stop-color="#141414"/></linearGradient><linearGradient id="paint7_linear_1_724" x1="140" y1="19.25" x2="50.016" y2="19.25" gradientUnits="userSpaceOnUse"><stop stop-color="#141414"/><stop offset=".484" stop-color="#2B3C50"/><stop offset="1" stop-color="#141414"/></linearGradient><linearGradient id="paint8_linear_1_724" x1="140" y1="19.25" x2="50.016" y2="19.25" gradientUnits="userSpaceOnUse"><stop stop-color="#141414"/><stop offset=".484" stop-color="#2B3C50"/><stop offset="1" stop-color="#141414"/></linearGradient><linearGradient id="paint9_linear_1_724" x1="140" y1="19.25" x2="50.016" y2="19.25" gradientUnits="userSpaceOnUse"><stop stop-color="#141414"/><stop offset=".484" stop-color="#2B3C50"/><stop offset="1" stop-color="#141414"/></linearGradient><linearGradient id="paint10_linear_1_724" x1="140" y1="19.25" x2="50.016" y2="19.25" gradientUnits="userSpaceOnUse"><stop stop-color="#141414"/><stop offset=".484" stop-color="#2B3C50"/><stop offset="1" stop-color="#141414"/></linearGradient><clipPath id="clip0_1_724"><path fill="#fff" d="M0 0h140v34H0z"/></clipPath></defs></svg>
